public/images/icons/tx_make.svg

<svg width="39" height="45" viewBox="0 0 39 45" fill="none" xmlns="http://www.w3.org/2000/svg">
<g clip-path="url(#clip0_175_3979)" filter="url(#filter0_d_175_3979)">
<path d="M18.0723 41.3408C17.3574 41.3408 16.6973 40.96 16.3398 40.3408L13.3418 35.1465H10.5488C5.2832 35.1465 1 30.8633 1 25.5977V10.5488C1 5.2832 5.2832 1 10.5488 1H25.5977C30.8633 1 35.1465 5.2832 35.1465 10.5488V25.5977C35.1465 30.8633 30.8633 35.1465 25.5977 35.1465H22.8027L19.8047 40.3408C19.4473 40.96 18.7871 41.3408 18.0723 41.3408Z" fill="white"/>
<path d="M25.5972 3H10.5483C6.37915 3 2.99951 6.37976 2.99951 10.549V25.5978C2.99951 29.767 6.37915 33.1467 10.5483 33.1467H14.4966L18.0728 39.3408L21.6489 33.1467H25.5972C29.7664 33.1467 33.1462 29.767 33.1462 25.5978V10.549C33.1462 6.37976 29.7664 3 25.5972 3Z" stroke="#763EC6" stroke-width="1.5" stroke-linejoin="round"/>
<path d="M21.6327 16.7245C21.6327 16.9011 21.562 17.0688 21.4383 17.1923C21.3148 17.3159 21.1472 17.3865 20.9707 17.3865H15.6748C15.4981 17.3865 15.3305 17.3159 15.2068 17.1923C15.0833 17.0688 15.0129 16.9011 15.0129 16.7245C15.0129 16.548 15.0833 16.3803 15.2068 16.2567C15.3305 16.1332 15.4981 16.0625 15.6748 16.0625H20.9707C21.1472 16.0625 21.3148 16.1332 21.4383 16.2567C21.562 16.3803 21.6327 16.548 21.6327 16.7245ZM26.2665 24.0063C26.2665 24.7124 25.984 25.3832 25.4897 25.8775C24.9953 26.3806 24.3157 26.6542 23.6186 26.6542H14.3509C13.6447 26.6542 12.9739 26.3806 12.4796 25.8775C11.9764 25.3832 11.703 24.7124 11.703 24.0063V13.4146C11.703 13.0704 11.5616 12.7261 11.3144 12.479C11.0673 12.2319 10.7231 12.0907 10.379 12.0907C10.0258 12.0907 9.6903 12.2319 9.44335 12.479C9.18735 12.7261 9.05504 13.0704 9.05504 13.4146C9.05504 13.8912 9.45218 14.2178 9.45218 14.2178C9.56682 14.2973 9.64634 14.4208 9.68168 14.5532C9.72564 14.6856 9.72564 14.8268 9.68168 14.9592C9.6375 15.0828 9.54915 15.1976 9.43451 15.277C9.32849 15.3564 9.18735 15.4006 9.05504 15.4006C8.90484 15.4006 8.77253 15.3564 8.65768 15.2681C8.56071 15.1976 7.73108 14.5444 7.73108 13.4146C7.73108 12.7174 8.00453 12.0377 8.5077 11.5434C9.00203 11.0492 9.67284 10.7667 10.379 10.7667H18.3844C18.7499 10.7667 19.0464 11.0631 19.0464 11.4287C19.0464 11.7943 18.7499 12.0907 18.3844 12.0907H12.6649C12.9032 12.4967 13.0269 12.9556 13.0269 13.4146V24.0063C13.0269 24.3594 13.1592 24.6947 13.4152 24.9419C13.6622 25.1978 13.9977 25.3303 14.3509 25.3303C14.695 25.3303 15.0391 25.1978 15.2863 24.9419C15.5335 24.6947 15.6748 24.3594 15.6748 24.0063C15.6748 23.5385 15.2686 23.2119 15.2686 23.2119C15.154 23.1325 15.0745 23.0177 15.0303 22.8853C14.9861 22.753 14.9861 22.6117 15.0303 22.4794C15.0745 22.3469 15.1628 22.2234 15.2775 22.1439C15.3923 22.0645 15.5335 22.0204 15.6748 22.0204H22.9566V16.7245C22.9566 16.3589 23.2531 16.0625 23.6186 16.0625C23.9841 16.0625 24.2806 16.3589 24.2806 16.7245V22.0204H24.9425C25.0837 22.0204 25.2248 22.0733 25.3397 22.1528C25.4367 22.2234 26.2665 22.8853 26.2665 24.0063ZM24.9425 24.0063C24.9335 23.768 24.8365 23.5297 24.6689 23.3443H16.8928C16.9635 23.565 16.9897 23.7856 16.9897 24.0063C16.9988 24.4741 16.8751 24.9331 16.6368 25.3303H23.6186C23.9627 25.3303 24.3069 25.1978 24.554 24.9419C24.8012 24.6947 24.9425 24.3594 24.9425 24.0063ZM20.9707 18.7105H15.6748C15.4981 18.7105 15.3305 18.7811 15.2068 18.9046C15.0833 19.0282 15.0129 19.1959 15.0129 19.3724C15.0129 19.549 15.0833 19.7167 15.2068 19.8402C15.3305 19.9638 15.4981 20.0344 15.6748 20.0344H20.9707C21.1472 20.0344 21.3148 19.9638 21.4383 19.8402C21.562 19.7167 21.6327 19.549 21.6327 19.3724C21.6327 19.1959 21.562 19.0282 21.4383 18.9046C21.3148 18.7811 21.1472 18.7105 20.9707 18.7105ZM25.9523 10.7539H24.2974V9.09899C24.2974 8.73336 24.0011 8.43701 23.6354 8.43701C23.2699 8.43701 22.9734 8.73336 22.9734 9.09899V10.7539H21.3185C20.953 10.7539 20.6565 11.0503 20.6565 11.4159C20.6565 11.7815 20.953 12.0779 21.3185 12.0779H22.9734V13.7328C22.9734 14.0984 23.2699 14.3948 23.6354 14.3948C24.0011 14.3948 24.2974 14.0984 24.2974 13.7328V12.0779H25.9523C26.318 12.0779 26.6143 11.7815 26.6143 11.4159C26.6143 11.0503 26.318 10.7539 25.9523 10.7539Z" fill="#763EC6"/>
</g>
<defs>
<filter id="filter0_d_175_3979" x="0" y="0" width="38.1465" height="44.3408" filterUnits="userSpaceOnUse" color-interpolation-filters="sRGB">
<feFlood flood-opacity="0" result="BackgroundImageFix"/>
<feColorMatrix in="SourceAlpha" type="matrix" values="0 0 0 0 0 0 0 0 0 0 0 0 0 0 0 0 0 0 127 0" result="hardAlpha"/>
<feOffset dx="1" dy="1"/>
<feGaussianBlur stdDeviation="1"/>
<feColorMatrix type="matrix" values="0 0 0 0 0 0 0 0 0 0 0 0 0 0 0 0 0 0 0.12 0"/>
<feBlend mode="normal" in2="BackgroundImageFix" result="effect1_dropShadow_175_3979"/>
<feBlend mode="normal" in="SourceGraphic" in2="effect1_dropShadow_175_3979" result="shape"/>
</filter>
<clipPath id="clip0_175_3979">
<rect width="34.1465" height="40.3408" fill="white" transform="translate(1 1)"/>
</clipPath>
</defs>
</svg>

<svg xmlns="http://www.w3.org/2000/svg" width="39" height="45" fill="none"><g clip-path="url(#a)"><path fill="#fff" d="M18.072 41.34a2 2 0 0 1-1.732-1l-2.998-5.194h-2.793C5.283 35.147 1 30.864 1 25.599v-15.05C1 5.284 5.283 1 10.549 1h15.049c5.265 0 9.549 4.283 9.549 9.549v15.049c0 5.265-4.284 9.549-9.55 9.549h-2.794l-2.998 5.194a2 2 0 0 1-1.733 1Z"/><path stroke="#763EC6" stroke-linejoin="round" stroke-width="1.5" d="M25.597 3H10.548A7.549 7.549 0 0 0 3 10.549v15.049c0 4.169 3.38 7.549 7.548 7.549h3.949l3.576 6.194 3.576-6.194h3.948c4.17 0 7.55-3.38 7.55-7.55V10.55c0-4.17-3.38-7.549-7.55-7.549Z"/><path fill="#763EC6" d="M21.633 16.724a.66.66 0 0 1-.662.663h-5.296a.662.662 0 0 1 0-1.325h5.296a.661.661 0 0 1 .662.662Zm4.634 7.282c0 .706-.283 1.377-.777 1.872a2.624 2.624 0 0 1-1.871.776H14.35a2.609 2.609 0 0 1-1.871-.776 2.608 2.608 0 0 1-.777-1.872V13.415c0-.345-.141-.689-.389-.936a1.322 1.322 0 0 0-1.871 0 1.301 1.301 0 0 0-.388.936c0 .476.397.803.397.803.115.08.194.203.23.335a.641.641 0 0 1 0 .406.668.668 0 0 1-.247.318.65.65 0 0 1-.777-.009c-.097-.07-.927-.724-.927-1.853 0-.698.274-1.377.777-1.872a2.646 2.646 0 0 1 1.871-.776h8.005a.662.662 0 0 1 0 1.324h-5.72c.24.406.363.865.363 1.324v10.591c0 .353.132.689.388.936.247.256.583.388.936.388.344 0 .688-.132.935-.388.248-.247.389-.583.389-.936 0-.468-.406-.794-.406-.794a.635.635 0 0 1-.239-.327.638.638 0 0 1 0-.406.673.673 0 0 1 .248-.335.705.705 0 0 1 .397-.124h7.282v-5.296a.662.662 0 0 1 1.324 0v5.296h.662c.14 0 .282.053.397.133.097.07.927.732.927 1.853Zm-1.325 0a1.057 1.057 0 0 0-.273-.662h-7.776c.07.221.097.442.097.662.009.468-.115.927-.353 1.324h6.982c.344 0 .688-.132.935-.388.247-.247.389-.583.389-.936Zm-3.971-5.296h-5.296a.662.662 0 0 0 0 1.324h5.296a.66.66 0 0 0 .467-1.13.661.661 0 0 0-.467-.194Zm4.981-7.956h-1.655V9.099a.662.662 0 1 0-1.324 0v1.655H21.32a.662.662 0 0 0 0 1.324h1.654v1.655a.662.662 0 0 0 1.324 0v-1.655h1.655a.662.662 0 1 0 0-1.324Z"/></g><defs><clipPath id="a"><path fill="#fff" d="M1 1h34.147v40.341H1z"/></clipPath></defs></svg>
